/* XPM */
static char * collectible_xpm_xpm[] = {
"48 48 12 1",
" 	c #787878",
".	c #AFAFAF",
"+	c #414141",
"@	c #8C8C8C",
"#	c #5A5A5A",
"$	c #5C4308",
"%	c #CCB548",
"&	c #FFF9B7",
"*	c #4C2D08",
"=	c #947E18",
"-	c #EEDA7A",
";	c #7A5C0A",
"  ..++@@..@@  ..++@@..@@  ..++@@..@@  ..++@@..@@",
"  ..++@@..@@  ..++@@..@@  ..++@@..@@  ..++@@..@@",
"##@@++##@@@@##@@++##@@@@##@@++##@@@@##@@++##@@@@",
"##@@++##@@@@##@@++##@@@@##@@++##@@@@##@@++##@@@@",
"  @@++  ##    @@++  ##    @@++  ##    @@++  ##  ",
"  @@++  ##    @@++  ##    @@++  ##    @@++  ##  ",
"++++++++++++++++++++++++++++++++++++++++++++++++",
"++++++++++++++++++++++++++++++++++++++++++++++++",
"@@@@..@@@@..@@@@..@@$$$$$$$$..@@@@..@@@@..@@@@..",
"@@@@..@@@@..@@@@..@@$$$$$$$$..@@@@..@@@@..@@@@..",
"##  ##  ##  ##  ##  $$$$$$$$##  ##  ##  ##  ##  ",
"##  ##  ##  ##  ##  $$$$$$$$##  ##  ##  ##  ##  ",
"  ..++@@..@@  ..$$$$%%%%&&&&$$$$..@@  ..++@@..@@",
"  ..++@@..@@  ..$$$$%%%%&&&&$$$$..@@  ..++@@..@@",
"##@@++##@@@@##@@$$$$%%%%&&&&$$$$@@@@##@@++##@@@@",
"##@@++##@@@@##@@$$$$%%%%&&&&$$$$@@@@##@@++##@@@@",
"  @@++  ##  ****%%%%====%%%%&&&&$$$$  @@++  ##  ",
"  @@++  ##  ****%%%%====%%%%&&&&$$$$  @@++  ##  ",
"++++++++++++****%%%%====%%%%&&&&$$$$++++++++++++",
"++++++++++++****%%%%====%%%%&&&&$$$$++++++++++++",
"@@@@..@@@@..****%%%%====&&&&----$$$$@@@@..@@@@..",
"@@@@..@@@@..****%%%%====&&&&----$$$$@@@@..@@@@..",
"##  ##  ##  ****%%%%====&&&&----$$$$##  ##  ##  ",
"##  ##  ##  ****%%%%====&&&&----$$$$##  ##  ##  ",
"  ..++@@..@@****====;;;;----%%%%****  ..++@@..@@",
"  ..++@@..@@****====;;;;----%%%%****  ..++@@..@@",
"##@@++##@@@@****====;;;;----%%%%****##@@++##@@@@",
"##@@++##@@@@****====;;;;----%%%%****##@@++##@@@@",
"  @@++  ##  ****====;;;;;;;;%%%%****  @@++  ##  ",
"  @@++  ##  ****====;;;;;;;;%%%%****  @@++  ##  ",
"++++++++++++****====;;;;;;;;%%%%****++++++++++++",
"++++++++++++****====;;;;;;;;%%%%****++++++++++++",
"@@@@..@@@@..@@@@****====%%%%****@@..@@@@..@@@@..",
"@@@@..@@@@..@@@@****====%%%%****@@..@@@@..@@@@..",
"##  ##  ##  ##  ****====%%%%****##  ##  ##  ##  ",
"##  ##  ##  ##  ****====%%%%****##  ##  ##  ##  ",
"  ..++@@..@@  ..++@@********++@@..@@  ..++@@..@@",
"  ..++@@..@@  ..++@@********++@@..@@  ..++@@..@@",
"##@@++##@@@@##@@++##********++##@@@@##@@++##@@@@",
"##@@++##@@@@##@@++##********++##@@@@##@@++##@@@@",
"  @@++  ##    @@++  ##    @@++  ##    @@++  ##  ",
"  @@++  ##    @@++  ##    @@++  ##    @@++  ##  ",
"++++++++++++++++++++++++++++++++++++++++++++++++",
"++++++++++++++++++++++++++++++++++++++++++++++++",
"@@@@..@@@@..@@@@..@@@@..@@@@..@@@@..@@@@..@@@@..",
"@@@@..@@@@..@@@@..@@@@..@@@@..@@@@..@@@@..@@@@..",
"##  ##  ##  ##  ##  ##  ##  ##  ##  ##  ##  ##  ",
"##  ##  ##  ##  ##  ##  ##  ##  ##  ##  ##  ##  "};
