/* XPM */
static char * exit_xpm[] = {
"48 48 28 1",
" 	c #787878",
".	c #AFAFAF",
"+	c #414141",
"@	c #8C8C8C",
"#	c #5A5A5A",
"$	c #000000",
"%	c #5A9AA5",
"&	c #8CB2BD",
"*	c #4A7984",
"=	c #182429",
"-	c #EFE37B",
";	c #524131",
">	c #C6BEC6",
",	c #DEDBDE",
"'	c #452512",
")	c #313131",
"!	c #965127",
"~	c #AF5E2D",
"{	c #BF6831",
"]	c #5D3118",
"^	c #763E1E",
"/	c #864723",
"(	c #9E5429",
"_	c #524139",
":	c #351C0E",
"<	c #84615A",
"[	c #94716B",
"}	c #AD8A84",
"  ..++@@..@@  ..++@@..@@  ..++@@..@@  ..++@@..@@",
"  ..++@@..@@  ..++@@..@@  ..++@@..@@  ..++@@..@@",
"##@@++##@@@@##@@++##@@@@##@@++##@@@@##@@++##@@@@",
"##@@++##@@@@##@@++##@@@@##@@++##@@@@##@@++##@@@@",
"  @@++  ##    @@++  ##    @@++  ##    @@++  ##  ",
"  @@++  ##    @@++  ##    @@++  ##    @@++  ##  ",
"++++++++++++++++++++++++++++++++++++++++++++++++",
"++++++++++++++++++++++++++++++++++++++++++++++++",
"@@@@..@@@@..@@@@..$$$$$$$$$$..@@@@..@@@@..@@@@..",
"@@@@..@@@@..@@@@..$$$$$$$$$$..@@@@..@@@@..@@@@..",
"##  ##  ##  ##  $$%%%%&&&&&&$$  ##  ##  ##  ##  ",
"##  ##  ##  ##  $$%%%%&&&&&&$$  ##  ##  ##  ##  ",
"  ..++@@..@@  $$%%$$%%%%%%&&&&$$..@@  ..++@@..@@",
"  ..++@@..@@  $$%%$$%%%%%%&&&&$$..@@  ..++@@..@@",
"##@@++##@@@@##$$%%**%%$$$$$$==$$@@@@##@@++##@@@@",
"##@@++##@@@@##$$%%**%%$$$$$$==$$@@@@##@@++##@@@@",
"  @@++  ##    $$$$$$$$$$--;;==$$##    @@++  ##  ",
"  @@++  ##    $$$$$$$$$$--;;==$$##    @@++  ##  ",
"++++++++++++++++$$**%%$$****==&&$$++++++++++++++",
"++++++++++++++++$$**%%$$****==&&$$++++++++++++++",
"@@@@..@@@@..@@@@$$$$****$$$$**%%&&$$@@@@..@@@@..",
"@@@@..@@@@..@@@@$$$$****$$$$**%%&&$$@@@@..@@@@..",
"##  ##  ##  ##$$>>,,$$********$$$$  ##  ##  ##  ",
"##  ##  ##  ##$$>>,,$$********$$$$  ##  ##  ##  ",
"  ..++@@..@@''''''''''$$$$$$$$$$))@@  ..++@@..@@",
"  ..++@@..@@''''''''''$$$$$$$$$$))@@  ..++@@..@@",
"##@@++##@@''!!~~~~~~~~~~~~~~~~~~{{''##@@++##@@@@",
"##@@++##@@''!!~~~~~~~~~~~~~~~~~~{{''##@@++##@@@@",
"  @@++  ##  ]]]]]]]]^^^^^^^^^^^^//''  @@++  ##  ",
"  @@++  ##  ]]]]]]]]^^^^^^^^^^^^//''  @@++  ##  ",
"++++++++++''////(((((($$$$$$$$**$$''++++++++++++",
"++++++++++''////(((((($$$$$$$$**$$''++++++++++++",
"@@@@..@@@@'']]]]]]^^$$__**%%%%$$%%$$@@@@..@@@@..",
"@@@@..@@@@'']]]]]]^^$$__**%%%%$$%%$$@@@@..@@@@..",
"##  ##  ##  ::::::::$$<<______$$__$$##  ##  ##  ",
"##  ##  ##  ::::::::$$<<______$$__$$##  ##  ##  ",
"  ..++@@..@@$$%%%%%%$$<<<<[[[[}}$$}}$$..++@@..@@",
"  ..++@@..@@$$%%%%%%$$<<<<[[[[}}$$}}$$..++@@..@@",
"##@@++##@@@@##$$$$$$$$$$$$$$$$$$$$$$$$@@++##@@@@",
"##@@++##@@@@##$$$$$$$$$$$$$$$$$$$$$$$$@@++##@@@@",
"  @@++  ##    @@++  ##    @@++  ##    @@++  ##  ",
"  @@++  ##    @@++  ##    @@++  ##    @@++  ##  ",
"++++++++++++++++++++++++++++++++++++++++++++++++",
"++++++++++++++++++++++++++++++++++++++++++++++++",
"@@@@..@@@@..@@@@..@@@@..@@@@..@@@@..@@@@..@@@@..",
"@@@@..@@@@..@@@@..@@@@..@@@@..@@@@..@@@@..@@@@..",
"##  ##  ##  ##  ##  ##  ##  ##  ##  ##  ##  ##  ",
"##  ##  ##  ##  ##  ##  ##  ##  ##  ##  ##  ##  "};
