/* XPM */
static char * player_d_xpm[] = {
"48 48 594 2",
"  	c #787878",
". 	c #AFAFAF",
"+ 	c #414141",
"@ 	c #8C8C8C",
"# 	c #36150E",
"$ 	c #351512",
"% 	c #4E1F1A",
"& 	c #511F10",
"* 	c #4C2112",
"= 	c #32160D",
"- 	c #351313",
"; 	c #381412",
"> 	c #531D14",
", 	c #4E2110",
"' 	c #4E2012",
") 	c #32150F",
"! 	c #35140F",
"~ 	c #5A5A5A",
"{ 	c #32140A",
"] 	c #321408",
"^ 	c #662C19",
"/ 	c #682A1D",
"( 	c #32160B",
"_ 	c #331609",
": 	c #662B21",
"< 	c #682B19",
"[ 	c #843627",
"} 	c #843725",
"| 	c #4C2016",
"1 	c #4E2014",
"2 	c #A1402A",
"3 	c #A2422A",
"4 	c #31130B",
"5 	c #37140B",
"6 	c #4B2118",
"7 	c #4E1F16",
"8 	c #33150B",
"9 	c #33150D",
"0 	c #65271A",
"a 	c #6A2E23",
"b 	c #2F150C",
"c 	c #32130E",
"d 	c #662B1F",
"e 	c #6A2A1D",
"f 	c #7F3A1F",
"g 	c #84381D",
"h 	c #4A1C11",
"i 	c #A54329",
"j 	c #A5442E",
"k 	c #3F170E",
"l 	c #4F2318",
"m 	c #522214",
"n 	c #4B1E12",
"o 	c #4F1F16",
"p 	c #351610",
"q 	c #38150C",
"r 	c #642919",
"s 	c #662917",
"t 	c #82391F",
"u 	c #853920",
"v 	c #652B1A",
"w 	c #642C18",
"x 	c #823823",
"y 	c #84381F",
"z 	c #9F432E",
"A 	c #A44228",
"B 	c #D35735",
"C 	c #D15833",
"D 	c #853824",
"E 	c #85371F",
"F 	c #9C432A",
"G 	c #9D442A",
"H 	c #D15A35",
"I 	c #D05931",
"J 	c #BA5032",
"K 	c #BB4E31",
"L 	c #511F12",
"M 	c #4F1F12",
"N 	c #37130D",
"O 	c #37190C",
"P 	c #622B1E",
"Q 	c #642B1A",
"R 	c #863822",
"S 	c #833A20",
"T 	c #672B14",
"U 	c #823821",
"V 	c #88351F",
"W 	c #9F442A",
"X 	c #9F4428",
"Y 	c #D15737",
"Z 	c #D05933",
"` 	c #7F3822",
" .	c #843723",
"..	c #A14126",
"+.	c #A14328",
"@.	c #D15937",
"#.	c #D2583B",
"$.	c #BA5231",
"%.	c #B94F2D",
"&.	c #531D18",
"*.	c #4C201A",
"=.	c #863520",
"-.	c #A1422C",
";.	c #A1432A",
">.	c #A3452E",
",.	c #82391D",
"'.	c #BA4C31",
").	c #BB4D2B",
"!.	c #CB5B35",
"~.	c #D05837",
"{.	c #6B291D",
"].	c #682B1B",
"^.	c #652D1B",
"/.	c #662C1B",
"(.	c #853625",
"_.	c #853721",
":.	c #33140F",
"<.	c #351509",
"[.	c #873B23",
"}.	c #843D21",
"|.	c #9F412A",
"1.	c #A33F2C",
"2.	c #A3472F",
"3.	c #A34430",
"4.	c #7F3820",
"5.	c #B74A31",
"6.	c #B64C2B",
"7.	c #D4573B",
"8.	c #CC5C35",
"9.	c #A24429",
"0.	c #A2432F",
"a.	c #612B17",
"b.	c #642B1C",
"c.	c #682C1E",
"d.	c #823526",
"e.	c #873322",
"f.	c #311405",
"g.	c #311309",
"h.	c #35140D",
"i.	c #4F2412",
"j.	c #893320",
"k.	c #823622",
"l.	c #4E1E11",
"m.	c #4C2110",
"n.	c #803923",
"o.	c #672B16",
"p.	c #632A19",
"q.	c #692719",
"r.	c #A2442D",
"s.	c #9F452D",
"t.	c #87361F",
"u.	c #843721",
"v.	c #652B18",
"w.	c #C95D37",
"x.	c #D15939",
"y.	c #A94527",
"z.	c #B35031",
"A.	c #BD4B2F",
"B.	c #A14426",
"C.	c #33170E",
"D.	c #391214",
"E.	c #4E2613",
"F.	c #813720",
"G.	c #7F3726",
"H.	c #4D200D",
"I.	c #4F210C",
"J.	c #7F3925",
"K.	c #7D3A25",
"L.	c #6A2914",
"M.	c #9D442C",
"N.	c #9C442E",
"O.	c #CF593D",
"P.	c #A4472B",
"Q.	c #A3432B",
"R.	c #B25033",
"S.	c #B54F31",
"T.	c #9F4322",
"U.	c #9F4524",
"V.	c #35170A",
"W.	c #35160E",
"X.	c #4F2010",
"Y.	c #843B2D",
"Z.	c #6B2717",
"`.	c #692815",
" +	c #803420",
".+	c #A04627",
"++	c #9D462D",
"@+	c #87351C",
"#+	c #843522",
"$+	c #672A1A",
"%+	c #4F2117",
"&+	c #522013",
"*+	c #632818",
"=+	c #662B1D",
"-+	c #9F4226",
";+	c #D3553B",
">+	c #D1593B",
",+	c #521F17",
"'+	c #35160C",
")+	c #4F1F14",
"!+	c #863724",
"~+	c #823A24",
"{+	c #83321E",
"]+	c #A3422F",
"^+	c #87341E",
"/+	c #692918",
"(+	c #652A1C",
"_+	c #652A1E",
":+	c #622C1A",
"<+	c #541E17",
"[+	c #512017",
"}+	c #63271C",
"|+	c #652E15",
"1+	c #9E4228",
"2+	c #D45835",
"3+	c #D65639",
"4+	c #893824",
"5+	c #331610",
"6+	c #351507",
"7+	c #67271D",
"8+	c #5F2B1B",
"9+	c #4C2114",
"0+	c #511E14",
"a+	c #EC7453",
"b+	c #EA7455",
"c+	c #35140B",
"d+	c #361510",
"e+	c #BC4F32",
"f+	c #B84E2B",
"g+	c #361412",
"h+	c #9D442E",
"i+	c #67291C",
"j+	c #2F160A",
"k+	c #662915",
"l+	c #612B1B",
"m+	c #BA5030",
"n+	c #B65031",
"o+	c #36180D",
"p+	c #692C1C",
"q+	c #37130F",
"r+	c #EE7456",
"s+	c #4E1F18",
"t+	c #F3F0F1",
"u+	c #EFF2EF",
"v+	c #484037",
"w+	c #493F35",
"x+	c #EC744F",
"y+	c #2F1A13",
"z+	c #36170F",
"A+	c #692C1A",
"B+	c #803921",
"C+	c #33170C",
"D+	c #371211",
"E+	c #EE7454",
"F+	c #F1F1F1",
"G+	c #EFF2F1",
"H+	c #484035",
"I+	c #493F37",
"J+	c #EA7553",
"K+	c #301810",
"L+	c #311815",
"M+	c #521F15",
"N+	c #69291C",
"O+	c #EA7457",
"P+	c #F0705B",
"Q+	c #4B3E37",
"R+	c #301812",
"S+	c #2F1915",
"T+	c #4D1F13",
"U+	c #3A1111",
"V+	c #EE7359",
"W+	c #EC7355",
"X+	c #ED7255",
"Y+	c #F4EFF1",
"Z+	c #4B3F35",
"`+	c #331614",
" @	c #2E1A15",
".@	c #331411",
"+@	c #21222B",
"@@	c #242426",
"#@	c #4E1E15",
"$@	c #512113",
"%@	c #BA5F40",
"&@	c #BD603F",
"*@	c #EC7357",
"=@	c #ED7353",
"-@	c #ED7351",
";@	c #FD7B5C",
">@	c #FE7D59",
",@	c #341A12",
"'@	c #341A10",
")@	c #24222E",
"!@	c #23232C",
"~@	c #4D1F0F",
"{@	c #4D2311",
"]@	c #BB6043",
"^@	c #ED744D",
"/@	c #FB7C5E",
"(@	c #FF7861",
"_@	c #351912",
":@	c #311B14",
"<@	c #212528",
"[@	c #20232B",
"}@	c #7885A3",
"|@	c #97A6C8",
"1@	c #97ABCB",
"2@	c #321A14",
"3@	c #371717",
"4@	c #BD5D42",
"5@	c #BA5F42",
"6@	c #361C17",
"7@	c #311B12",
"8@	c #1F252C",
"9@	c #1E242B",
"0@	c #7785A0",
"a@	c #7686A3",
"b@	c #95A7C6",
"c@	c #98ACCC",
"d@	c #321B10",
"e@	c #341917",
"f@	c #C05C40",
"g@	c #BF5E3C",
"h@	c #F07153",
"i@	c #ED744F",
"j@	c #EF734F",
"k@	c #331F0F",
"l@	c #311A17",
"m@	c #21242C",
"n@	c #7A85A1",
"o@	c #91A7C6",
"p@	c #92A8C8",
"q@	c #93A6C6",
"r@	c #8F8974",
"s@	c #938674",
"t@	c #2D1912",
"u@	c #311712",
"v@	c #331813",
"w@	c #331815",
"x@	c #311913",
"y@	c #958A7C",
"z@	c #908A75",
"A@	c #241F1F",
"B@	c #222220",
"C@	c #21242E",
"D@	c #93A7C4",
"E@	c #94A8C8",
"F@	c #99A6C6",
"G@	c #958576",
"H@	c #30180E",
"I@	c #31180E",
"J@	c #33190F",
"K@	c #341715",
"L@	c #2F1A11",
"M@	c #978A78",
"N@	c #918977",
"O@	c #24201D",
"P@	c #20232D",
"Q@	c #7884A0",
"R@	c #7784A2",
"S@	c #94A6C4",
"T@	c #202329",
"U@	c #1A222B",
"V@	c #A19A7A",
"W@	c #A29884",
"X@	c #928774",
"Y@	c #908874",
"Z@	c #857C6A",
"`@	c #837B69",
" #	c #4C453C",
".#	c #4C453A",
"+#	c #827A68",
"@#	c #847968",
"##	c #A49B83",
"$#	c #A29882",
"%#	c #24201B",
"&#	c #22201F",
"*#	c #1D252B",
"=#	c #96A5C6",
"-#	c #1C2129",
";#	c #A19982",
">#	c #918A73",
",#	c #857D66",
"'#	c #4C473D",
")#	c #4D463D",
"!#	c #827C65",
"~#	c #857A67",
"{#	c #A29A86",
"]#	c #21211F",
"^#	c #7585A2",
"/#	c #1E232D",
"(#	c #6A624E",
"_#	c #6A6150",
":#	c #A29880",
"<#	c #555247",
"[#	c #565147",
"}#	c #A19980",
"|#	c #A49880",
"1#	c #6A6054",
"2#	c #676151",
"3#	c #23221C",
"4#	c #23221E",
"5#	c #94A6C6",
"6#	c #20262D",
"7#	c #676254",
"8#	c #9F9783",
"9#	c #565243",
"0#	c #585143",
"a#	c #9F9A80",
"b#	c #A19884",
"c#	c #25221A",
"d#	c #7886A1",
"e#	c #4D4739",
"f#	c #908876",
"g#	c #8F8773",
"h#	c #9F9881",
"i#	c #696051",
"j#	c #4F4637",
"k#	c #4D463B",
"l#	c #170F08",
"m#	c #1A0D0A",
"n#	c #20222F",
"o#	c #21222D",
"p#	c #7B83A7",
"q#	c #7883A2",
"r#	c #8FA8C4",
"s#	c #99A4C2",
"t#	c #4A473F",
"u#	c #908778",
"v#	c #A29988",
"w#	c #4C4641",
"x#	c #1A0D08",
"y#	c #170E0A",
"z#	c #34180F",
"A#	c #311911",
"B#	c #D8694B",
"C#	c #DB694E",
"D#	c #E87555",
"E#	c #BD5F43",
"F#	c #BA5D41",
"G#	c #361711",
"H#	c #837A6B",
"I#	c #837B67",
"J#	c #7C7462",
"K#	c #7E7563",
"L#	c #857A69",
"M#	c #2A180C",
"N#	c #331811",
"O#	c #BF5C44",
"P#	c #C05C42",
"Q#	c #2E1311",
"R#	c #311A0F",
"S#	c #DA684D",
"T#	c #BD5B43",
"U#	c #341811",
"V#	c #656153",
"W#	c #827B6B",
"X#	c #7C7460",
"Y#	c #7E7561",
"Z#	c #2B190D",
"`#	c #DA684F",
" $	c #D76A4D",
".$	c #D86C4A",
"+$	c #DD694E",
"@$	c #BB5E42",
"#$	c #BD5B41",
"$$	c #341713",
"%$	c #38352A",
"&$	c #39342A",
"*$	c #39332E",
"=$	c #39342C",
"-$	c #ADA68F",
";$	c #36332B",
">$	c #38322B",
",$	c #BB5E40",
"'$	c #BF5D40",
")$	c #311817",
"!$	c #D8694D",
"~$	c #BD5D44",
"{$	c #383528",
"]$	c #AFA58F",
"^$	c #353429",
"/$	c #383329",
"($	c #BD5E40",
"_$	c #4C4739",
":$	c #8F8976",
"<$	c #7F7763",
"[$	c #8F8878",
"}$	c #34180D",
"|$	c #D26C4D",
"1$	c #DA6751",
"2$	c #D7694F",
"3$	c #B95E3F",
"4$	c #4C4835",
"5$	c #7F7665",
"6$	c #908872",
"7$	c #351910",
"8$	c #391417",
"9$	c #C05A48",
"0$	c #2C140F",
"a$	c #341914",
"b$	c #2E140D",
"c$	c #6E644A",
"d$	c #6F6448",
"e$	c #BCAC84",
"f$	c #BEAC80",
"g$	c #E1CE9E",
"h$	c #E6CC9C",
"i$	c #312C22",
"j$	c #342C21",
"k$	c #E3CD9E",
"l$	c #E3CE9A",
"m$	c #373023",
"n$	c #322D23",
"o$	c #2E1812",
"p$	c #30130D",
"q$	c #71624C",
"r$	c #BCAC82",
"s$	c #322D21",
"t$	c #362F24",
"u$	c #371611",
"v$	c #312E23",
"w$	c #2C2C1C",
"x$	c #70644D",
"y$	c #72634D",
"z$	c #322E1F",
"A$	c #30291C",
"B$	c #74624F",
"C$	c #726547",
"D$	c #BCAC86",
"E$	c #E3CD9C",
"F$	c #342C23",
"G$	c #E1CDA0",
"H$	c #312F1F",
"I$	c #322E1D",
"J$	c #6B6648",
"K$	c #6F6647",
"L$	c #BEAC82",
"M$	c #BEAB84",
"N$	c #968464",
"O$	c #978464",
"P$	c #332F20",
"Q$	c #BFAD81",
"R$	c #BFAE7F",
"S$	c #2F2F23",
"T$	c #6F644A",
"U$	c #70654B",
"V$	c #C1AB87",
"W$	c #BDAE81",
"X$	c #BFAC87",
"Y$	c #BFAC89",
"Z$	c #978567",
"`$	c #97846B",
" %	c #332E22",
".%	c #BFAE7D",
"+%	c #BFAD83",
"@%	c #342D1F",
"#%	c #706549",
"$%	c #C1AC85",
"%%	c #BDAD85",
"&%	c #968562",
"*%	c #968466",
"=%	c #422D15",
"-%	c #412E15",
";%	c #422D17",
">%	c #422C1B",
",%	c #372E1E",
"'%	c #71634A",
")%	c #6F6649",
"!%	c #968560",
"~%	c #4A2915",
"{%	c #322F22",
"]%	c #312F1D",
"^%	c #442C17",
"/%	c #6F634C",
"(%	c #72624C",
"_%	c #452F1B",
":%	c #482E19",
"<%	c #68462B",
"[%	c #6B4429",
"}%	c #9C663A",
"|%	c #9B643B",
"1%	c #2F2F1F",
"2%	c #9C6439",
"3%	c #452F19",
"4%	c #482E17",
"5%	c #65472B",
"6%	c #68452F",
"7%	c #9C6636",
"8%	c #322F24",
"9%	c #956440",
"0%	c #A16235",
"a%	c #312E21",
"b%	c #2F2F21",
"c%	c #352C21",
"    . . + + @ @ . . @ @     . . + + @ # $ . @ % & & * . + = - @ . . @ @     . . + + @ @ . . @ @ ",
"    . . + + @ @ . . @ @     . . + + @ # ; . @ > , , ' . + ) ! @ . . @ @     . . + + @ @ . . @ @ ",
"~ ~ @ @ + + ~ ~ @ @ @ @ ~ ~ @ @ + { ] ^ / ( _ : < [ } | 1 2 3 4 5 6 7 1 ' ~ @ @ + + ~ ~ @ @ @ @ ",
"~ ~ @ @ + + ~ ~ @ @ @ @ ~ ~ @ @ + 8 9 0 a b c d e f g h ' i j k 4 l m n o ~ @ @ + + ~ ~ @ @ @ @ ",
"    @ @ + +     ~ ~         @ p q r s t u v w x y z A B C D E F G H I J K L M @ + +     ~ ~     ",
"    @ @ + +     ~ ~         @ N O P Q R S w T U V W X Y Z `  ...+.@.#.$.%.&.*.@ + +     ~ ~     ",
"+ + + + + + + + + + + = = = ( g =.-.;.;.>.y ,.'.).!.~.X -.{.].^./.(._.N :.+ + + + + + + + + + + ",
"+ + + + + + + + + + + ( ) <.) [.}.|.1.2.3.=.4.5.6.7.8.9.0.a.r b.c.d.e.f.g.+ + + + + + + + + + + ",
"@ @ @ @ . . @ @ @ h.:.* i.j.k.l.m._.n.o.p.q.p.r.s.t.u.v.v.w.x.y.9.z.A.3 B.N ) @ . . @ @ @ @ . . ",
"@ @ @ @ . . @ @ @ C.D.7 E.F.G.H.I.J.K.L.T v v M.N.g y s v @.O.P.Q.R.S.T.U.( V.@ . . @ @ @ @ . . ",
"~ ~     ~ ~     ~ ~   W.N M X.D Y.Z.`.x  +.+++@+#+w v $+v.%+&+*+=+-+..;+>+,+1   ~ ~     ~ ~     ",
"~ ~     ~ ~     ~ ~   '+! )+o !+~+q.a.u.{+]+s.^+#+/+(+_+:+<+[+}+|+1+2 2+3+,+'   ~ ~     ~ ~     ",
"    . . + + @ @ . . @ @   h.C.t 4+;.;.s d 5+6+7+8+, 9+)+0+a+b+c+p W.d+e+f+)+1 . + + @ @ . . @ @ ",
"    . . + + @ @ . . @ @   C.g+y 4+3 h+i+/.j+( k+l+)+' ' 7 a+b+h.p d+C.m+n+> M . + + @ @ . . @ @ ",
"~ ~ @ @ + + ~ ~ @ @ @ c+o+, ' b.p+u.n.'+q+r+b+o s+t+u+v+w+x+b+5+y+@ @ 7 7 ~ @ @ + + ~ ~ @ @ @ @ ",
"~ ~ @ @ + + ~ ~ @ @ @ h.z+X.' Q A+u.B+C+D+E+a+)+7 F+G+H+I+x+J+K+L+@ @ 1 o ~ @ @ + + ~ ~ @ @ @ @ ",
"    @ @ + +     ~ ~       p d+7 M+N+v ( D+E+J+O+P+F+F+w+Q+x+J+R+S+~         @ @ + +     ~ ~     ",
"    @ @ + +     ~ ~       9 c+T+o p._+5 U+V+W+W+X+Y+G+Z+Q+x+W+`+ @~         @ @ + +     ~ ~     ",
"+ + + + + + + + + + + + + + + .@V.+@@@#@$@%@&@*@W+W+W+=@W+-@-@;@>@,@'@+ + + + + + + + + + + + + ",
"+ + + + + + + + + + + + + + + b :.)@!@~@{@]@]@^@X+a+a+a+a+a+a+/@(@_@:@+ + + + + + + + + + + + + ",
"@ @ @ @ . . @ @ @ @ . . @ @ @ <@[@}@}@|@1@2@3@4@5@a+a+a+a+a+a+6@7@@ . . @ @ @ @ . . @ @ @ @ . . ",
"@ @ @ @ . . @ @ @ @ . . @ @ @ 8@9@0@a@b@c@d@e@f@g@h@i@x+i@j@i@k@l@@ . . @ @ @ @ . . @ @ @ @ . . ",
"~ ~     ~ ~     ~ ~     ~ m@8@n@a@o@p@q@p@r@s@t@u@v@w@w@v@x@y+y@z@A@B@  ~ ~     ~ ~     ~ ~     ",
"~ ~     ~ ~     ~ ~     ~ C@8@n@}@D@E@q@F@r@G@H@I@J@v@K@v@x@L@M@N@O@B@  ~ ~     ~ ~     ~ ~     ",
"    . . + + @ @ . . @ @   P@[@Q@R@D@S@T@U@V@W@X@Y@Z@`@ #.#+#@###$#%#&#@     . . + + @ @ . . @ @ ",
"    . . + + @ @ . . @ @   P@*#Q@R@D@=#P@-#$#;#>#>#,#,#'#)#!#~#{#;#O@]#@     . . + + @ @ . . @ @ ",
"~ ~ @ @ + + ~ ~ @ @ @ @ ~ P@9@Q@^#D@=#/#8@(#_#$#$#:#:#<#[#}#|#1#2#3#4#@ ~ ~ @ @ + + ~ ~ @ @ @ @ ",
"~ ~ @ @ + + ~ ~ @ @ @ @ ~ P@[@0@R@D@5#T@6#_#7#8#;#:#:#9#0#a#b#_#2#c#4#@ ~ ~ @ @ + + ~ ~ @ @ @ @ ",
"    @ @ + +     ~ ~       P@9@d#R@D@5#T@9@)#e#f#g#h#}#2#i#}#b#j#k#l#m#      @ @ + +     ~ ~     ",
"    @ @ + +     ~ ~       n#o#p#q#r#s#P@P@t#k#u#Y@;#;#i#i#v#b#j#w#x#y#      @ @ + +     ~ ~     ",
"+ + + + + + + + + + + + + z#A#B#C#D#b+E#F#v@G#i#2#H#I#J#K#`@L#M#N#O#P#Q#R#+ + + + + + + + + + + ",
"+ + + + + + + + + + + + + z#A#S#C#b+b+E#T#K@U#V#V#W#H#X#Y#H#H#Z#K@4@f@Q#A#+ + + + + + + + + + + ",
"@ @ @ @ . . @ @ @ @ . . @ U#x@`# $.$+$@$#$$$v@%$&$*$=$-$-$;$>$7@K@,$'$Q#A#@ @ @ . . @ @ @ @ . . ",
"@ @ @ @ . . @ @ @ @ . . @ U#)$S#!$!$`#~$#$v@w@=$=$&${$]$-$^$/$2@K@($f@Q#x@@ @ @ . . @ @ @ @ . . ",
"~ ~     ~ ~     ~ ~     ~ N#A#S#!$!$`#($#$v@w@k#_$:$r@<$<$f#[$d@L+f@f@Q#L+~     ~ ~     ~ ~     ",
"~ ~     ~ ~     ~ ~     ~ L@}$|$1$S#2$4@3$L+ @k#4$r@r@5$5$f#6$7$8$,$9$0$A#~     ~ ~     ~ ~     ",
"    . . + + @ @ . . @ @     . 2@$$$$v@a$b$c$d$e$f$g$h$i$j$k$l$m$n$w@A#@     . . + + @ @ . . @ @ ",
"    . . + + @ @ . . @ @     . o$x@v@N#a$p$c$q$e$r$g$h$s$j$k$l$t$s$x@u$@     . . + + @ @ . . @ @ ",
"~ ~ @ @ + + ~ ~ @ @ @ @ ~ ~ @ @ + + ~ v$w$x$y$e$f$g$h$s$j$k$l$t$s$@ @ @ ~ ~ @ @ + + ~ ~ @ @ @ @ ",
"~ ~ @ @ + + ~ ~ @ @ @ @ ~ ~ @ @ + + ~ z$A$B$C$D$f$g$E$s$F$G$g$t$s$@ @ @ ~ ~ @ @ + + ~ ~ @ @ @ @ ",
"    @ @ + +     ~ ~         @ @ + H$I$J$K$L$r$L$M$N$O$P$n$Q$R$F$s$~         @ @ + +     ~ ~     ",
"    @ @ + +     ~ ~         @ @ + S$z$T$U$V$W$X$Y$Z$`$ %n$.%+%@%s$~         @ @ + +     ~ ~     ",
"+ + + + + + + + + + + + + + + + + v$z$T$#%$%%%&%*%=%-% %j$;%>%,%s$+ + + + + + + + + + + + + + + ",
"+ + + + + + + + + + + + + + + + + v$z$'%)%%%%%!%*%;%~%{%]%^%^%@%v$+ + + + + + + + + + + + + + + ",
"@ @ @ @ . . @ @ @ @ . . @ @ @ @ . n$s$q$/%q$(%_%:%<%[%}%|%1%s$2%|%1%S$. @ @ @ @ . . @ @ @ @ . . ",
"@ @ @ @ . . @ @ @ @ . . @ @ @ @ . v$j$T$T$T$'%3%4%5%6%7%}%8% %9%0%{%a%. @ @ @ @ . . @ @ @ @ . . ",
"~ ~     ~ ~     ~ ~     ~ ~     ~ b%s$H$a%a%s$j$s$s$c%v$s$n$s$a%s$a%H$  ~ ~     ~ ~     ~ ~     ",
"~ ~     ~ ~     ~ ~     ~ ~     ~ 1%H$a%a%a%a%a%s$n$a%a%a%1%s$a%v$a%]%  ~ ~     ~ ~     ~ ~     "};
