/* XPM */
static char * player_a_xpm[] = {
"48 48 606 2",
"  	c #787878",
". 	c #AFAFAF",
"+ 	c #414141",
"@ 	c #8C8C8C",
"# 	c #351313",
"$ 	c #32160D",
"% 	c #4C2112",
"& 	c #511F10",
"* 	c #4E1F1A",
"= 	c #351512",
"- 	c #36150E",
"; 	c #35140F",
"> 	c #32150F",
", 	c #4E2012",
"' 	c #4E2110",
") 	c #531D14",
"! 	c #381412",
"~ 	c #5A5A5A",
"{ 	c #4E2014",
"] 	c #4E1F16",
"^ 	c #4B2118",
"/ 	c #37140B",
"( 	c #31130B",
"_ 	c #A2422A",
": 	c #A1402A",
"< 	c #4C2016",
"[ 	c #843725",
"} 	c #843627",
"| 	c #682B19",
"1 	c #662B21",
"2 	c #331609",
"3 	c #32160B",
"4 	c #682A1D",
"5 	c #662C19",
"6 	c #321408",
"7 	c #32140A",
"8 	c #4F1F16",
"9 	c #4B1E12",
"0 	c #522214",
"a 	c #4F2318",
"b 	c #3F170E",
"c 	c #A5442E",
"d 	c #A54329",
"e 	c #4A1C11",
"f 	c #84381D",
"g 	c #7F3A1F",
"h 	c #6A2A1D",
"i 	c #662B1F",
"j 	c #32130E",
"k 	c #2F150C",
"l 	c #6A2E23",
"m 	c #65271A",
"n 	c #33150D",
"o 	c #33150B",
"p 	c #4F1F12",
"q 	c #511F12",
"r 	c #BB4E31",
"s 	c #BA5032",
"t 	c #D05931",
"u 	c #D15A35",
"v 	c #9D442A",
"w 	c #9C432A",
"x 	c #85371F",
"y 	c #853824",
"z 	c #D15833",
"A 	c #D35735",
"B 	c #A44228",
"C 	c #9F432E",
"D 	c #84381F",
"E 	c #823823",
"F 	c #642C18",
"G 	c #652B1A",
"H 	c #853920",
"I 	c #82391F",
"J 	c #662917",
"K 	c #642919",
"L 	c #38150C",
"M 	c #351610",
"N 	c #4C201A",
"O 	c #531D18",
"P 	c #B94F2D",
"Q 	c #BA5231",
"R 	c #D2583B",
"S 	c #D15937",
"T 	c #A14328",
"U 	c #A14126",
"V 	c #843723",
"W 	c #7F3822",
"X 	c #D05933",
"Y 	c #D15737",
"Z 	c #9F4428",
"` 	c #9F442A",
" .	c #88351F",
"..	c #823821",
"+.	c #672B14",
"@.	c #833A20",
"#.	c #863822",
"$.	c #642B1A",
"%.	c #622B1E",
"&.	c #37190C",
"*.	c #37130D",
"=.	c #33140F",
"-.	c #853721",
";.	c #853625",
">.	c #662C1B",
",.	c #652D1B",
"'.	c #682B1B",
").	c #6B291D",
"!.	c #A1422C",
"~.	c #D05837",
"{.	c #CB5B35",
"].	c #BB4D2B",
"^.	c #BA4C31",
"/.	c #82391D",
"(.	c #A3452E",
"_.	c #A1432A",
":.	c #863520",
"<.	c #311309",
"[.	c #311405",
"}.	c #873322",
"|.	c #823526",
"1.	c #682C1E",
"2.	c #642B1C",
"3.	c #612B17",
"4.	c #A2432F",
"5.	c #A24429",
"6.	c #CC5C35",
"7.	c #D4573B",
"8.	c #B64C2B",
"9.	c #B74A31",
"0.	c #7F3820",
"a.	c #A34430",
"b.	c #A3472F",
"c.	c #A33F2C",
"d.	c #9F412A",
"e.	c #843D21",
"f.	c #873B23",
"g.	c #351509",
"h.	c #A14426",
"i.	c #BD4B2F",
"j.	c #B35031",
"k.	c #A94527",
"l.	c #D15939",
"m.	c #C95D37",
"n.	c #652B18",
"o.	c #843721",
"p.	c #87361F",
"q.	c #9F452D",
"r.	c #A2442D",
"s.	c #632A19",
"t.	c #692719",
"u.	c #672B16",
"v.	c #803923",
"w.	c #4C2110",
"x.	c #4E1E11",
"y.	c #823622",
"z.	c #893320",
"A.	c #4F2412",
"B.	c #35140D",
"C.	c #35170A",
"D.	c #9F4524",
"E.	c #9F4322",
"F.	c #B54F31",
"G.	c #B25033",
"H.	c #A3432B",
"I.	c #A4472B",
"J.	c #CF593D",
"K.	c #9C442E",
"L.	c #9D442C",
"M.	c #6A2914",
"N.	c #7D3A25",
"O.	c #7F3925",
"P.	c #4F210C",
"Q.	c #4D200D",
"R.	c #7F3726",
"S.	c #813720",
"T.	c #4E2613",
"U.	c #391214",
"V.	c #33170E",
"W.	c #521F17",
"X.	c #D1593B",
"Y.	c #D3553B",
"Z.	c #9F4226",
"`.	c #662B1D",
" +	c #632818",
".+	c #522013",
"++	c #4F2117",
"@+	c #672A1A",
"#+	c #843522",
"$+	c #87351C",
"%+	c #9D462D",
"&+	c #A04627",
"*+	c #803420",
"=+	c #692815",
"-+	c #6B2717",
";+	c #843B2D",
">+	c #4F2010",
",+	c #35160E",
"'+	c #D65639",
")+	c #D45835",
"!+	c #9E4228",
"~+	c #652E15",
"{+	c #63271C",
"]+	c #512017",
"^+	c #541E17",
"/+	c #622C1A",
"(+	c #652A1E",
"_+	c #652A1C",
":+	c #682818",
"<+	c #823421",
"[+	c #85331D",
"}+	c #A3422F",
"|+	c #83321E",
"1+	c #823A24",
"2+	c #863724",
"3+	c #4F1F14",
"4+	c #35160C",
"5+	c #B84E2B",
"6+	c #BC4F32",
"7+	c #361510",
"8+	c #35140B",
"9+	c #EA7455",
"0+	c #EC7453",
"a+	c #511E14",
"b+	c #451D11",
"c+	c #411A0C",
"d+	c #471E12",
"e+	c #4B1A13",
"f+	c #280E04",
"g+	c #2B120C",
"h+	c #893824",
"i+	c #B65031",
"j+	c #BA5030",
"k+	c #461C0F",
"l+	c #3B150D",
"m+	c #431C10",
"n+	c #371307",
"o+	c #190803",
"p+	c #210E05",
"q+	c #67291C",
"r+	c #9D442E",
"s+	c #361412",
"t+	c #2F1A13",
"u+	c #331610",
"v+	c #EC744F",
"w+	c #493F35",
"x+	c #484037",
"y+	c #DADDDA",
"z+	c #D2D0D0",
"A+	c #3A1510",
"B+	c #2E0F09",
"C+	c #89412E",
"D+	c #B5573F",
"E+	c #37130F",
"F+	c #692C1C",
"G+	c #36180D",
"H+	c #311815",
"I+	c #301810",
"J+	c #EA7553",
"K+	c #493F37",
"L+	c #484035",
"M+	c #EFF2F1",
"N+	c #F1F1F1",
"O+	c #4C1E15",
"P+	c #42190F",
"Q+	c #CA6246",
"R+	c #D06548",
"S+	c #371211",
"T+	c #33170C",
"U+	c #803921",
"V+	c #692C1A",
"W+	c #36170F",
"X+	c #2F1915",
"Y+	c #301812",
"Z+	c #4B3E37",
"`+	c #F0705B",
" @	c #EA7457",
".@	c #EE7454",
"+@	c #69291C",
"@@	c #521F15",
"#@	c #2E1A15",
"$@	c #331614",
"%@	c #EC7355",
"&@	c #4B3F35",
"*@	c #F4EFF1",
"=@	c #ED7255",
"-@	c #EE7359",
";@	c #3A1111",
">@	c #4D1F13",
",@	c #341A10",
"'@	c #341A12",
")@	c #FE7D59",
"!@	c #FD7B5C",
"~@	c #ED7351",
"{@	c #ED7353",
"]@	c #EC7357",
"^@	c #BD603F",
"/@	c #BA5F40",
"(@	c #512113",
"_@	c #4E1E15",
":@	c #242426",
"<@	c #21222B",
"[@	c #331411",
"}@	c #311B14",
"|@	c #351912",
"1@	c #FF7861",
"2@	c #FB7C5E",
"3@	c #ED744D",
"4@	c #BB6043",
"5@	c #4D2311",
"6@	c #4D1F0F",
"7@	c #23232C",
"8@	c #24222E",
"9@	c #311B12",
"0@	c #361C17",
"a@	c #BA5F42",
"b@	c #BD5D42",
"c@	c #371717",
"d@	c #321A14",
"e@	c #97ABCB",
"f@	c #97A6C8",
"g@	c #7885A3",
"h@	c #20232B",
"i@	c #212528",
"j@	c #311A17",
"k@	c #331F0F",
"l@	c #ED744F",
"m@	c #EF734F",
"n@	c #F07153",
"o@	c #BF5E3C",
"p@	c #C05C40",
"q@	c #341917",
"r@	c #321B10",
"s@	c #98ACCC",
"t@	c #95A7C6",
"u@	c #7686A3",
"v@	c #7785A0",
"w@	c #1E242B",
"x@	c #1F252C",
"y@	c #222220",
"z@	c #241F1F",
"A@	c #908A75",
"B@	c #958A7C",
"C@	c #311913",
"D@	c #331813",
"E@	c #331815",
"F@	c #311712",
"G@	c #2D1912",
"H@	c #938674",
"I@	c #8F8974",
"J@	c #92A8C8",
"K@	c #93A6C6",
"L@	c #91A7C6",
"M@	c #7A85A1",
"N@	c #21242C",
"O@	c #24201D",
"P@	c #918977",
"Q@	c #978A78",
"R@	c #2F1A11",
"S@	c #341715",
"T@	c #33190F",
"U@	c #31180E",
"V@	c #30180E",
"W@	c #958576",
"X@	c #99A6C6",
"Y@	c #94A8C8",
"Z@	c #93A7C4",
"`@	c #21242E",
" #	c #22201F",
".#	c #24201B",
"+#	c #A29882",
"@#	c #A49B83",
"##	c #847968",
"$#	c #827A68",
"%#	c #4C453A",
"&#	c #4C453C",
"*#	c #837B69",
"=#	c #857C6A",
"-#	c #908874",
";#	c #928774",
">#	c #A29884",
",#	c #A19A7A",
"'#	c #1A222B",
")#	c #202329",
"!#	c #94A6C4",
"~#	c #7784A2",
"{#	c #7884A0",
"]#	c #20232D",
"^#	c #21211F",
"/#	c #A19982",
"(#	c #A29A86",
"_#	c #857A67",
":#	c #827C65",
"<#	c #4D463D",
"[#	c #4C473D",
"}#	c #857D66",
"|#	c #918A73",
"1#	c #1C2129",
"2#	c #96A5C6",
"3#	c #1D252B",
"4#	c #23221E",
"5#	c #23221C",
"6#	c #676151",
"7#	c #6A6054",
"8#	c #A49880",
"9#	c #A19980",
"0#	c #565147",
"a#	c #555247",
"b#	c #A29880",
"c#	c #6A6150",
"d#	c #6A624E",
"e#	c #1E232D",
"f#	c #7585A2",
"g#	c #25221A",
"h#	c #A19884",
"i#	c #9F9A80",
"j#	c #585143",
"k#	c #565243",
"l#	c #9F9783",
"m#	c #676254",
"n#	c #20262D",
"o#	c #94A6C6",
"p#	c #1A0D0A",
"q#	c #170F08",
"r#	c #4D463B",
"s#	c #4F4637",
"t#	c #696051",
"u#	c #9F9881",
"v#	c #8F8773",
"w#	c #908876",
"x#	c #4D4739",
"y#	c #7886A1",
"z#	c #170E0A",
"A#	c #1A0D08",
"B#	c #4C4641",
"C#	c #A29988",
"D#	c #908778",
"E#	c #4A473F",
"F#	c #99A4C2",
"G#	c #8FA8C4",
"H#	c #7883A2",
"I#	c #7B83A7",
"J#	c #21222D",
"K#	c #20222F",
"L#	c #311A0F",
"M#	c #2E1311",
"N#	c #C05C42",
"O#	c #BF5C44",
"P#	c #331811",
"Q#	c #2A180C",
"R#	c #857A69",
"S#	c #7E7563",
"T#	c #7C7462",
"U#	c #837B67",
"V#	c #837A6B",
"W#	c #361711",
"X#	c #BA5D41",
"Y#	c #BD5F43",
"Z#	c #E87555",
"`#	c #DB694E",
" $	c #D8694B",
".$	c #311911",
"+$	c #34180F",
"@$	c #2B190D",
"#$	c #7E7561",
"$$	c #7C7460",
"%$	c #827B6B",
"&$	c #656153",
"*$	c #341811",
"=$	c #BD5B43",
"-$	c #DA684D",
";$	c #BF5D40",
">$	c #BB5E40",
",$	c #38322B",
"'$	c #36332B",
")$	c #ADA68F",
"!$	c #39342C",
"~$	c #39332E",
"{$	c #39342A",
"]$	c #38352A",
"^$	c #341713",
"/$	c #BD5B41",
"($	c #BB5E42",
"_$	c #DD694E",
":$	c #D86C4A",
"<$	c #D76A4D",
"[$	c #DA684F",
"}$	c #BD5E40",
"|$	c #383329",
"1$	c #353429",
"2$	c #AFA58F",
"3$	c #383528",
"4$	c #BD5D44",
"5$	c #D8694D",
"6$	c #311817",
"7$	c #8F8878",
"8$	c #7F7763",
"9$	c #8F8976",
"0$	c #4C4739",
"a$	c #2C140F",
"b$	c #C05A48",
"c$	c #391417",
"d$	c #351910",
"e$	c #908872",
"f$	c #7F7665",
"g$	c #4C4835",
"h$	c #B95E3F",
"i$	c #D7694F",
"j$	c #DA6751",
"k$	c #D26C4D",
"l$	c #34180D",
"m$	c #322D23",
"n$	c #373023",
"o$	c #E3CE9A",
"p$	c #E3CD9E",
"q$	c #342C21",
"r$	c #312C22",
"s$	c #E6CC9C",
"t$	c #E1CE9E",
"u$	c #BEAC80",
"v$	c #BCAC84",
"w$	c #6F6448",
"x$	c #6E644A",
"y$	c #2E140D",
"z$	c #341914",
"A$	c #371611",
"B$	c #322D21",
"C$	c #362F24",
"D$	c #BCAC82",
"E$	c #71624C",
"F$	c #30130D",
"G$	c #2E1812",
"H$	c #72634D",
"I$	c #70644D",
"J$	c #2C2C1C",
"K$	c #312E23",
"L$	c #E1CDA0",
"M$	c #342C23",
"N$	c #E3CD9C",
"O$	c #BCAC86",
"P$	c #726547",
"Q$	c #74624F",
"R$	c #30291C",
"S$	c #322E1F",
"T$	c #BFAE7F",
"U$	c #BFAD81",
"V$	c #332F20",
"W$	c #978464",
"X$	c #968464",
"Y$	c #BEAB84",
"Z$	c #BEAC82",
"`$	c #6F6647",
" %	c #6B6648",
".%	c #322E1D",
"+%	c #312F1F",
"@%	c #342D1F",
"#%	c #BFAD83",
"$%	c #BFAE7D",
"%%	c #332E22",
"&%	c #97846B",
"*%	c #978567",
"=%	c #BFAC89",
"-%	c #BFAC87",
";%	c #BDAE81",
">%	c #C1AB87",
",%	c #70654B",
"'%	c #6F644A",
")%	c #2F2F23",
"!%	c #372E1E",
"~%	c #422C1B",
"{%	c #422D17",
"]%	c #412E15",
"^%	c #422D15",
"/%	c #968466",
"(%	c #968562",
"_%	c #BDAD85",
":%	c #C1AC85",
"<%	c #706549",
"[%	c #442C17",
"}%	c #312F1D",
"|%	c #322F22",
"1%	c #4A2915",
"2%	c #968560",
"3%	c #6F6649",
"4%	c #71634A",
"5%	c #2F2F1F",
"6%	c #9B643B",
"7%	c #9C6439",
"8%	c #9C663A",
"9%	c #6B4429",
"0%	c #68462B",
"a%	c #482E19",
"b%	c #452F1B",
"c%	c #72624C",
"d%	c #6F634C",
"e%	c #312E21",
"f%	c #A16235",
"g%	c #956440",
"h%	c #322F24",
"i%	c #9C6636",
"j%	c #68452F",
"k%	c #65472B",
"l%	c #482E17",
"m%	c #452F19",
"n%	c #352C21",
"o%	c #2F2F21",
"    . . + + @ @ . . @ @     . . + # $ @ . % & & *   . = - + @ @ . . @ @     . . + + @ @ . . @ @ ",
"    . . + + @ @ . . @ @     . . + ; > @ . , ' ' )   . ! - + @ @ . . @ @     . . + + @ @ . . @ @ ",
"~ ~ @ @ + + ~ ~ @ @ @ , { ] ^ / ( _ : { < [ } | 1 2 3 4 5 6 7 ~ @ @ @ @ ~ ~ @ @ + + ~ ~ @ @ @ @ ",
"~ ~ @ @ + + ~ ~ @ @ @ 8 9 0 a ( b c d , e f g h i j k l m n o ~ @ @ @ @ ~ ~ @ @ + + ~ ~ @ @ @ @ ",
"    @ @ + +     ~ p q r s t u v w x y z A B C D E F G H I J K L M ~         @ @ + +     ~ ~     ",
"    @ @ + +     ~ N O P Q R S T U V W X Y Z `  ...+.F @.#.$.%.&.*.~         @ @ + +     ~ ~     ",
"+ + + + + + + + + + + =.*.-.;.>.,.'.).!.Z ~.{.].^./.D (._._.!.:.f 3 $ $ $ + + + + + + + + + + + ",
"+ + + + + + + + + + + <.[.}.|.1.2.K 3.4.5.6.7.8.9.0.:.a.b.c.d.e.f.> g.> 3 + + + + + + + + + + + ",
"@ @ @ @ . . @ @ @ > *.h._ i.j.5.k.l.m.n.n.o.p.q.r.s.t.s.u.v.-.w.x.y.z.A.% =.B.@ . . @ @ @ @ . . ",
"@ @ @ @ . . @ @ @ C.3 D.E.F.G.H.I.J.S G J D f K.L.G G +.M.N.O.P.Q.R.S.T.] U.V.@ . . @ @ @ @ . . ",
"~ ~     ~ ~     ~ { W.X.Y.U Z.`. +.+++n.@+G F #+$+%+&+*+E =+-+;+y >+p *.,+~     ~ ~     ~ ~     ",
"~ ~     ~ ~     ~ , W.'+)+: !+~+{+]+^+/+(+_+:+<+[+q.}+|+o.3.t.1+2+8 3+; 4+~     ~ ~     ~ ~     ",
"    . . + + @ @ . { 3+5+6+7+,+M 8+9+0+a+3+b+c+d+e+f+g+i J _._.h+I V.B.@     . . + + @ @ . . @ @ ",
"    . . + + @ @ . p ) i+j+V.7+M B.9+0+] , k+l+m+n+o+p+>.q+r+_ h+D s+V.@     . . + + @ @ . . @ @ ",
"~ ~ @ @ + + ~ ~ @ @ @ ] ] ~ @ t+u+9+v+w+x+y+z+A+B+C+D+E+4+v.o.F+2., ' G+8+~ @ @ + + ~ ~ @ @ @ @ ",
"~ ~ @ @ + + ~ ~ @ @ @ 8 { ~ @ H+I+J+v+K+L+M+N+O+P+Q+R+S+T+U+o.V+$., >+W+B.~ @ @ + + ~ ~ @ @ @ @ ",
"    @ @ + +     ~ ~         @ X+Y+J+v+Z+w+N+N+`+ @J+.@S+3 G +@@@] 7+M       @ @ + +     ~ ~     ",
"    @ @ + +     ~ ~         @ #@$@%@v+Z+&@M+*@=@%@%@-@;@/ (+s.8 >@8+n       @ @ + +     ~ ~     ",
"+ + + + + + + + + + + + + ,@'@)@!@~@~@%@{@%@%@%@]@^@/@(@_@:@<@C.[@+ + + + + + + + + + + + + + + ",
"+ + + + + + + + + + + + + }@|@1@2@0+0+0+0+0+0+=@3@4@4@5@6@7@8@=.k + + + + + + + + + + + + + + + ",
"@ @ @ @ . . @ @ @ @ . . @ @ @ 9@0@0+0+0+0+0+0+a@b@c@d@e@f@g@g@h@i@@ . . @ @ @ @ . . @ @ @ @ . . ",
"@ @ @ @ . . @ @ @ @ . . @ @ @ j@k@l@m@l@v+l@n@o@p@q@r@s@t@u@v@w@x@@ . . @ @ @ @ . . @ @ @ @ . . ",
"~ ~     ~ ~     ~ ~     ~ y@z@A@B@t+C@D@E@E@D@F@G@H@I@J@K@J@L@u@M@x@N@  ~ ~     ~ ~     ~ ~     ",
"~ ~     ~ ~     ~ ~     ~ y@O@P@Q@R@C@D@S@D@T@U@V@W@I@X@K@Y@Z@g@M@x@`@  ~ ~     ~ ~     ~ ~     ",
"    . . + + @ @ . . @ @    #.#+#@###$#%#&#*#=#-#;#>#,#'#)#!#Z@~#{#h@]#@     . . + + @ @ . . @ @ ",
"    . . + + @ @ . . @ @   ^#O@/#(#_#:#<#[#}#}#|#|#/#+#1#]#2#Z@~#{#3#]#@     . . + + @ @ . . @ @ ",
"~ ~ @ @ + + ~ ~ @ @ @ @ ~ 4#5#6#7#8#9#0#a#b#b#+#+#c#d#x@e#2#Z@f#{#w@]#@ ~ ~ @ @ + + ~ ~ @ @ @ @ ",
"~ ~ @ @ + + ~ ~ @ @ @ @ ~ 4#g#6#c#h#i#j#k#b#b#/#l#m#c#n#)#o#Z@~#v@h@]#@ ~ ~ @ @ + + ~ ~ @ @ @ @ ",
"    @ @ + +     ~ ~       p#q#r#s#h#9#t#6#9#u#v#w#x#<#w@)#o#Z@~#y#w@]#      @ @ + +     ~ ~     ",
"    @ @ + +     ~ ~       z#A#B#s#h#C#t#t#/#/#-#D#r#E#]#]#F#G#H#I#J#K#      @ @ + +     ~ ~     ",
"+ + + + + + + + + + + L#M#N#O#P#Q#R#*#S#T#U#V#6#t#W#D@X#Y#9+Z#`# $.$+$+ + + + + + + + + + + + + ",
"+ + + + + + + + + + + .$M#p@b@S@@$V#V##$$$V#%$&$&$*$S@=$Y#9+9+`#-$.$+$+ + + + + + + + + + + + + ",
"@ @ @ @ . . @ @ @ @ . .$M#;$>$S@9@,$'$)$)$!$~${$]$D@^$/$($_$:$<$[$C@*$. @ @ @ @ . . @ @ @ @ . . ",
"@ @ @ @ . . @ @ @ @ . C@M#p@}$S@d@|$1$)$2$3${$!$!$E@D@/$4$[$5$5$-$6$*$. @ @ @ @ . . @ @ @ @ . . ",
"~ ~     ~ ~     ~ ~   H+M#p@p@H+r@7$w#8$8$I@9$0$r#E@D@/$}$[$5$5$-$.$P#  ~ ~     ~ ~     ~ ~     ",
"~ ~     ~ ~     ~ ~   .$a$b$>$c$d$e$w#f$f$I@I@g$r##@H+h$b@i$-$j$k$l$R@  ~ ~     ~ ~     ~ ~     ",
"    . . + + @ @ . . @ @   .$E@m$n$o$p$q$r$s$t$u$v$w$x$y$z$D@^$^$d@. @ @     . . + + @ @ . . @ @ ",
"    . . + + @ @ . . @ @   A$C@B$C$o$p$q$B$s$t$D$v$E$x$F$z$P#D@C@G$. @ @     . . + + @ @ . . @ @ ",
"~ ~ @ @ + + ~ ~ @ @ @ @ ~ ~ @ B$C$o$p$q$B$s$t$u$v$H$I$J$K$+ ~ ~ @ @ @ @ ~ ~ @ @ + + ~ ~ @ @ @ @ ",
"~ ~ @ @ + + ~ ~ @ @ @ @ ~ ~ @ B$C$t$L$M$B$N$t$u$O$P$Q$R$S$+ ~ ~ @ @ @ @ ~ ~ @ @ + + ~ ~ @ @ @ @ ",
"    @ @ + +     ~ ~         @ B$M$T$U$m$V$W$X$Y$Z$D$Z$`$ %.%+%  ~ ~         @ @ + +     ~ ~     ",
"    @ @ + +     ~ ~         @ B$@%#%$%m$%%&%*%=%-%;%>%,%'%S$)%  ~ ~         @ @ + +     ~ ~     ",
"+ + + + + + + + + + + + + + + B$!%~%{%q$%%]%^%/%(%_%:%<%'%S$K$+ + + + + + + + + + + + + + + + + ",
"+ + + + + + + + + + + + + + + K$@%[%[%}%|%1%{%/%2%_%_%3%4%S$K$+ + + + + + + + + + + + + + + + + ",
"@ @ @ @ . . @ @ @ @ . . @ )%5%6%7%B$5%6%8%9%0%a%b%c%E$d%E$B$m$@ @ @ . . @ @ @ @ . . @ @ @ @ . . ",
"@ @ @ @ . . @ @ @ @ . . @ e%|%f%g%%%h%8%i%j%k%l%m%4%'%'%'%q$K$@ @ @ . . @ @ @ @ . . @ @ @ @ . . ",
"~ ~     ~ ~     ~ ~     ~ +%e%B$e%B$m$B$K$n%B$B$q$B$e%e%+%B$o%  ~ ~     ~ ~     ~ ~     ~ ~     ",
"~ ~     ~ ~     ~ ~     ~ }%e%K$e%B$5%e%e%e%m$B$e%e%e%e%e%+%5%  ~ ~     ~ ~     ~ ~     ~ ~     "};
