/* XPM */
static char * wall_xpm[] = {
"48 48 5 1",
" 	c #A97D5D",
".	c #78553C",
"+	c #976B4B",
"@	c #563E2C",
"#	c #BF8F6F",
"  ....  ..  ....    ..  ++++......    ++++    ++",
"  ....  ..  ....    ..  ++++......    ++++    ++",
"..@@@@@@@@..@@......@@@@....@@@@@@....@@@@....@@",
"..@@@@@@@@..@@......@@@@....@@@@@@....@@@@....@@",
"..@@@@@@@@..@@......@@@@....@@@@@@....@@@@....@@",
"..@@@@@@@@..@@......@@@@....@@@@@@....@@@@....@@",
"  ##########    ####  ######    ##  ##  ######  ",
"  ##########    ####  ######    ##  ##  ######  ",
"++++++++######..      ..++  ++++....    ##    ++",
"++++++++######..      ..++  ++++....    ##    ++",
"  ............      ..  ++  ......  ++    ....++",
"  ............      ..  ++  ......  ++    ....++",
"@@@@@@..@@@@....................@@......@@....@@",
"@@@@@@..@@@@....................@@......@@....@@",
"##########          ##  ##########  ######    ##",
"##########          ##  ##########  ######    ##",
"++......  ++++######++++++++    ++++++....++++  ",
"++......  ++++######++++++++    ++++++....++++  ",
"++......  ++++######++++++++    ++++++....++++  ",
"++......  ++++######++++++++    ++++++....++++  ",
"++++++..    ..++++++++++............++++..      ",
"++++++..    ..++++++++++............++++..      ",
"@@....@@........@@@@@@@@@@..@@@@....@@..@@......",
"@@....@@........@@@@@@@@@@..@@@@....@@..@@......",
"  ##############    ##      ########  ##########",
"  ##############    ##      ########  ##########",
"++    ##  ..++++++++  ++++++++++..++++..##      ",
"++    ##  ..++++++++  ++++++++++..++++..##      ",
"..@@@@..@@++++......++....@@++++++++..++..@@@@@@",
"..@@@@..@@++++......++....@@++++++++..++..@@@@@@",
"..@@@@..@@++++......++....@@++++++++..++..@@@@@@",
"..@@@@..@@++++......++....@@++++++++..++..@@@@@@",
"@@........@@..@@....@@@@@@..@@@@....@@@@........",
"@@........@@..@@....@@@@@@..@@@@....@@@@........",
"##    ##    ############  ##      ######      ##",
"##    ##    ############  ##      ######      ##",
"..    ++####..##++++++  ++..    ++##++++..####++",
"..    ++####..##++++++  ++..    ++##++++..####++",
"++......@@++..  @@@@++++  ++@@@@++  ++++  ++++++",
"++......@@++..  @@@@++++  ++@@@@++  ++++  ++++++",
"..@@@@@@..@@@@........@@..@@@@@@@@@@..@@@@@@@@@@",
"..@@@@@@..@@@@........@@..@@@@@@@@@@..@@@@@@@@@@",
"##        ######    ##    ########  ####  ####  ",
"##        ######    ##    ########  ####  ####  ",
"##        ######    ##    ########  ####  ####  ",
"##        ######    ##    ########  ####  ####  ",
"......++  ++++++......++..++    ..++  ..........",
"......++  ++++++......++..++    ..++  .........."};
